resources/haticons/SVG/visa.svg

<!-- Generated by IcoMoon.io -->
<svg version="1.1" xmlns="http://www.w3.org/2000/svg" width="24" height="24" viewBox="0 0 24 24">
<title>visa</title>
<path d="M22.2 15.525l-0.225-0.975h-2.475l-0.375 0.975h-1.95l3.225-7.125h2.025l1.575 7.125h-1.8zM21.15 10.5l-1.050 2.7h1.65l-0.6-2.7zM15.675 9.75c-1.2 0.075-1.2 0.45-1.2 0.75-0.075 0.3 0.45 0.525 0.675 0.6 0.15 0.075 1.050 0.6 1.050 0.6s1.050 0.6 0.975 1.575c-0.075 1.575-1.95 2.55-3.375 2.55s-2.1-0.45-2.1-0.45l0.3-1.5c0.975 0.525 2.1 0.45 2.55 0.375s1.125-0.675 0.225-1.275c-0.9-0.525-0.15 0-1.275-0.675-1.125-0.6-0.975-1.725-0.975-1.725s0-1.050 0.75-1.575c1.725-1.35 4.275-0.375 4.275-0.375l-0.3 1.575c-0.075 0-0.825-0.525-1.575-0.45zM8.55 15.525l1.2-7.125h2.025l-1.275 7.125h-1.95zM3.75 15.525l-1.575-5.775c1.95 1.050 2.7 3.075 2.7 3.075l0.15 0.675 1.8-5.1h2.1l-3 7.125h-2.175zM0 8.4h3c1.050 0 1.2 0.9 1.2 0.9l0.6 3c-0.975-2.775-4.8-3.9-4.8-3.9z"></path>
</svg>

<svg xmlns="http://www.w3.org/2000/svg" width="24" height="24"><path d="M22.2 15.525l-.225-.975H19.5l-.375.975h-1.95L20.4 8.4h2.025L24 15.525h-1.8zM21.15 10.5l-1.05 2.7h1.65l-.6-2.7zm-5.475-.75c-1.2.075-1.2.45-1.2.75-.075.3.45.525.675.6.15.075 1.05.6 1.05.6s1.05.6.975 1.575c-.075 1.575-1.95 2.55-3.375 2.55s-2.1-.45-2.1-.45l.3-1.5c.975.525 2.1.45 2.55.375s1.125-.675.225-1.275c-.9-.525-.15 0-1.275-.675-1.125-.6-.975-1.725-.975-1.725s0-1.05.75-1.575C15 7.65 17.55 8.625 17.55 8.625l-.3 1.575c-.075 0-.825-.525-1.575-.45zM8.55 15.525L9.75 8.4h2.025L10.5 15.525H8.55zm-4.8 0L2.175 9.75c1.95 1.05 2.7 3.075 2.7 3.075l.15.675 1.8-5.1h2.1l-3 7.125H3.75zM0 8.4h3c1.05 0 1.2.9 1.2.9l.6 3C3.825 9.525 0 8.4 0 8.4z"/></svg>
